X: 1468
T: Molly Malone
R: reel
B: O'Neill's 1850 #1468
O: J.O'Neill
Z: Bob Safranek, rjs@gsp.org
Z: Compacted via repeats and multiple endings [JC]
M: C|
L: 1/8
K: G
   d |: g2(dc) B2(GB) | Abag fdef |1 gfgd ecdB | cAFD GBdf :|2 gbfa egdB | cAdc BGG |]
|: c |  BGDG   EGDG   | ABcA cedc |1 BGDG EGce | gedc BGG  :|2 BdgB ceag | fdcA BGG |]
